packages/symbols/svgs/duotone/sort-alt-duotone.svg

<svg width="24" height="24" viewBox="0 0 24 24" fill="none" xmlns="http://www.w3.org/2000/svg">
<path fill-rule="evenodd" clip-rule="evenodd" d="M11.2929 2.29289C11.6834 1.90237 12.3166 1.90237 12.7071 2.29289L17.7071 7.29289C18.0976 7.68342 18.0976 8.31658 17.7071 8.70711C17.3166 9.09763 16.6834 9.09763 16.2929 8.70711L12 4.41421L7.70711 8.70711C7.31658 9.09763 6.68342 9.09763 6.29289 8.70711C5.90237 8.31658 5.90237 7.68342 6.29289 7.29289L11.2929 2.29289Z" fill="black"/>
<path opacity="0.5" fill-rule="evenodd" clip-rule="evenodd" d="M6.29289 15.2929C6.68342 14.9024 7.31658 14.9024 7.70711 15.2929L12 19.5858L16.2929 15.2929C16.6834 14.9024 17.3166 14.9024 17.7071 15.2929C18.0976 15.6834 18.0976 16.3166 17.7071 16.7071L12.7071 21.7071C12.3166 22.0976 11.6834 22.0976 11.2929 21.7071L6.29289 16.7071C5.90237 16.3166 5.90237 15.6834 6.29289 15.2929Z" fill="black"/>
</svg>

<svg width="24" height="24" viewBox="0 0 24 24" xmlns="http://www.w3.org/2000/svg"><path fill-rule="evenodd" clip-rule="evenodd" d="M11.293 2.293a1 1 0 0 1 1.414 0l5 5a1 1 0 0 1-1.414 1.414L12 4.414 7.707 8.707a1 1 0 0 1-1.414-1.414l5-5Z"/><path opacity=".5" fill-rule="evenodd" clip-rule="evenodd" d="M6.293 15.293a1 1 0 0 1 1.414 0L12 19.586l4.293-4.293a1 1 0 0 1 1.414 1.414l-5 5a1 1 0 0 1-1.414 0l-5-5a1 1 0 0 1 0-1.414Z"/></svg>
